!!!!SEGMENT: pl-kk--kk-i-2--045-002_certon-pierre--missa-ad-imitationem-moduli-le-temps-qui-court-gloria.krn
!!!cenid: 16xx:1670
!!!COM: Certon, Pierre
!!!COM-rismid: pe30006023
!!!CDT: ~1510-1572/02/23
!!!CNT: French
!!!OPR: Missa Ad imitationem moduli [Le temps qui court]
!!!OTL: Gloria
!!!OMV: 002
!!!PDT:
!!!AGN: Sacred; Mass
!!!SMS-siglum: PL-Kk
!!!SMS-shelfmark: Kk.I.2
!!!SMS-shelfwork: 045-002 M
!!!NIFC-rismid: 300258063
!!!URL-scan: http://repozytorium.nifc.pl/skany/pl-kk-nut--i-2
!!!ONB-nifc: Części mszy: Kyrie, Gloria, Credo, Sanctus, Agnus Dei; skany: C: 0069-0070; A: 0173-0174; T: 0273-0274; B: 0373-0374;
!!!key: d:dor
**kern	**text	**kern	**text	**kern	**text	**kern	**text
*part4	*part4	*part3	*part3	*part2	*part2	*part1	*part1
*staff4	*staff4	*staff3	*staff3	*staff2	*staff2	*staff1	*staff1
*I"BASVS	*	*I"TENOR	*	*I"ALTVS	*	*I"DISCANTVS	*
*I'B	*	*I'T	*	*I'A	*	*I'S	*
*ICvox	*	*ICvox	*	*ICvox	*	*ICvox	*
*Ibass	*	*Itenor	*	*Ialto	*	*Isoprn	*
*clefF4	*	*clefC4	*	*clefC4	*	*clefC4	*
*d:dor	*	*d:dor	*	*d:dor	*	*d:dor	*
*k[]	*	*k[]	*	*k[]	*	*k[]	*
*M2/1	*	*M2/1	*	*M2/1	*	*M2/1	*
*met(c|)	*	*met(c|)	*	*met(c|)	*	*met(c|)	*
=1	=1	=1	=1	=1	=1	=1	=1
!LO:TX:t=P:problem=kreska pseudotaktowa	!	!	!	!	!	!	!
!LO:TX:a:t=1.	!	!	!	!	!	!	!
!	!	!	!	!LO:TX:t=P:problem=Altus zapisany w kluczu tenorowym	!	!	!
!	!	!	!	!	!	!LO:TX:t=P:problem=Discantus zapisany w kluczu tenorowym	!
1r	.	1.D	Et	0r	.	0r	.
1.D	ET	.	.	.	.	.	.
.	.	2D/	in	.	.	.	.
=2	=2	=2	=2	=2	=2	=2	=2
!	!	!	!	!LO:TX:t=P:problem=kreska pseudotaktowa	!	!	!
.	.	2.F/	ter-	1r	.	1.D	Et
2D/	in	.	.	.	.	.	.
.	.	4G/	-ra	.	.	.	.
!	!	!LO:TX:t=P:problem=kreska pseudotaktowa	!	!	!	!	!
2.F\	ter-	1A	pax	1.D	Et	.	.
.	.	.	.	.	.	2D/	in
4G\	-ra	.	.	.	.	.	.
=3	=3	=3	=3	=3	=3	=3	=3
!LO:TX:t=P:problem=kreska pseudotaktowa	!	!	!	!	!	!	!
1A	pax	2D/	ho-	.	.	2.F/	ter-
.	.	2.F/	-mi-	2D/	in	.	.
.	.	.	.	.	.	4G/	-ra
!	!	!	!	!	!	!LO:TX:t=P:problem=kreska pseudotaktowa	!
2r	.	.	.	2.F/	ter-	1A	pax
.	.	4G/	-ni-	.	.	.	.
!	!	!LO:TX:t=P:problem=kreska pseudotaktowa	!	!	!	!	!
2D/	ho-	2A/	-bus	.	.	.	.
.	.	.	.	4G/	-ra	.	.
=4	=4	=4	=4	=4	=4	=4	=4
*custos:E	*	*	*	*	*	*	*
!	!	!	!	!LO:TX:t=P:problem=kreska pseudotaktowa	!	!	!
1.F	-mi-	1r	.	1A	pax	2r	.
.	.	.	.	.	.	2D/	ho-
.	.	2A/	bo-	1r	.	2F/	-mi-
!LO:TX:t=P:problem=kreska pseudotaktowa	!	!	!	!	!	!	!
!LO:LB:g=original	!	!	!	!	!	!	!
2E\	-mi-	2.c\	-nae	.	.	2G/	-ni-
=5	=5	=5	=5	=5	=5	=5	=5
!	!	!	!	!	!	!LO:TX:t=P:problem=kreska pseudotaktowa	!
2C/	-ni-	.	.	2r	.	1A	-bus
.	.	4B\	Vo-	.	.	.	.
2D/	-bus	1A	-lun-	2A/	bo-	.	.
1E	.	.	.	2c\	-nae	1r	.
!	!	!LO:TX:t=P:problem=kreska pseudotaktowa	!	!LO:TX:t=P:problem=kreska pseudotaktowa	!	!	!
.	.	2G/	-ta-	2B\	vo-	.	.
=6	=6	=6	=6	=6	=6	=6	=6
!LO:TX:t=P:problem=kreska pseudotaktowa	!	!	!	!	!	!	!
0AA	.	2F/	.	2.A/	-lun-	2r	.
.	.	2E/	-tis	.	.	2A/	bo-
.	.	.	.	4G/	.	.	.
.	.	2r	.	4F/	.	1.c	-nae
.	.	.	.	4E/	.	.	.
.	.	2.A/	Vo-	1e	.	.	.
=7	=7	=7	=7	=7	=7	=7	=7
2r	.	.	.	.	.	.	.
.	.	4G/	-lun-	.	.	.	.
!	!	!	!	!	!	!LO:TX:t=P:problem=kreska pseudotaktowa	!
2D/	bo-	4F/	.	1d	-ta-	2B\	vo-
!	!	!LO:TX:t=P:problem=kreska pseudotaktowa	!	!	!	!	!
.	.	4E/	.	.	.	.	.
1.F	-nae	4F/	.	.	.	2.A/	-lun-
.	.	4D/	.	.	.	.	.
*	*	*custos:c	*	*	*	*	*
!	!	!	!	!LO:TX:t=P:problem=kreska pseudotaktowa	!	!	!
.	.	1A	.	2c\	-tis	.	.
.	.	.	.	.	.	4G/	.
!	!	!LO:LB:g=original	!	!	!	!	!
=8	=8	=8	=8	=8	=8	=8	=8
.	.	.	.	2d\	.	4F/	.
.	.	.	.	.	.	4E/	.
2E\	vo-	2.c\	-ta-	1G	.	1e	.
2C/	-lun-	.	.	.	.	.	.
.	.	4B\	-tis	.	.	.	.
2D/	-ta-	4A/	.	2F/	.	1d	.
.	.	4G/	.	.	.	.	.
=9	=9	=9	=9	=9	=9	=9	=9
!	!	!LO:TX:t=P:problem=kreska pseudotaktowa	!	!	!	!	!
1AA	.	0A	.	1E	.	.	.
.	.	.	.	.	.	2c\	-ta-
*	*	*	*	*	*	*custos:G	*
!LO:TX:t=P:problem=kreska pseudotaktowa	!	!	!	!LO:TX:t=P:problem=kreska pseudotaktowa	!	!LO:TX:t=P:problem=kreska pseudotaktowa	!
1D	-tis	.	.	1D	.	1d	-tis
!	!	!	!	!	!	!LO:LB:g=original	!
=10	=10	=10	=10	=10	=10	=10	=10
2r	.	2r	.	2r	.	2r	.
1D	Lau-	1d	Lau-	1A	Lau-	1f	lau-
!LO:TX:t=P:problem=kreska pseudotaktowa	!	!	!	!LO:TX:t=P:problem=kreska pseudotaktowa	!	!	!
2D/	-da-	2d\	-da-	2A/	-da-	2f\	-da-
=11	=11	=11	=11	=11	=11	=11	=11
1F	-mus	1c	-mus	1A	-mus	1f	-mus
2C/	(te)	2c\	te	2G/	te	2e\	te
!LO:TX:t=P:problem=kreska pseudotaktowa	!	!LO:TX:t=P:problem=kreska pseudotaktowa	!	!LO:TX:t=P:problem=kreska pseudotaktowa	!	!LO:TX:t=P:problem=kreska pseudotaktowa	!
2C/	Be-	2c\	Be-	2G/	Be-	2e\	Be-
=12	=12	=12	=12	=12	=12	=12	=12
2C/	-ne-	2c\	-ne-	2G/	-ne-	2e\	-ne-
2C/	-di-	2c\	-di-	2G/	-di-	2e\	-di-
1D	-ci-	2B\	-ci-	1F	-ci-	1d	-ci-
.	.	1A	-mus	.	.	.	.
=13	=13	=13	=13	=13	=13	=13	=13
!	!	!	!	!LO:TX:t=P:problem=kreska pseudotaktowa	!	!	!
1BBn	-mus	.	.	1D	-mus	1d	-mus
!	!	!LO:TX:t=P:problem=kreska pseudotaktowa	!	!	!	!	!
.	.	2G/	.	.	.	.	.
0AA	te	2.A/	te	2E/	te	0c	te
.	.	.	.	1A	A-	.	.
.	.	8G/L	.	.	.	.	.
.	.	8F/J	.	.	.	.	.
=14	=14	=14	=14	=14	=14	=14	=14
*	*	*	*	*	*	*custos:c	*
!	!	!	!	!	!	!LO:TX:t=P:problem=kreska pseudotaktowa	!
!LO:TX:t=P:problem=kreska pseudotaktowa	!	!	!	!	!	!	!
.	.	4E/	.	.	.	.	.
.	.	4D/	.	.	.	.	.
!	!	!	!	!LO:TX:t=P:problem=kreska pseudotaktowa	!	!	!
.	.	2E/	.	2c\	-do-	.	.
2r	.	0D	.	2B\	-ra-	1r	.
1D	A-	.	.	1A	-mus	.	.
!	!	!	!	!	!	!LO:LB:g=original	!
=15	=15	=15	=15	=15	=15	=15	=15
!	!	!LO:TX:t=P:problem=kreska pseudotaktowa	!	!	!	!	!
.	.	.	.	.	.	0r	.
!LO:TX:t=P:problem=kreska pseudotaktowa	!	!	!	!	!	!	!
2F\	-do-	.	.	4G/	.	.	.
!	!	!	!	!LO:TX:t=P:problem=kreska pseudotaktowa	!	!	!
.	.	.	.	4F/	.	.	.
2E\	-ra-	2r	.	4G/	.	.	.
.	.	.	.	4F/	.	.	.
*custos:C	*	*	*	*	*	*	*
1D	-mus	1A	A-	4E/	.	.	.
.	.	.	.	4D/	.	.	.
!LO:LB:g=original	!	!	!	!	!	!	!
!LO:TX:t=P:problem=kreska pseudotaktowa	!	!	!	!	!	!	!
=16	=16	=16	=16	=16	=16	=16	=16
!	!	!	!	!	!	!LO:TX:t=P:problem=kreska pseudotaktowa	!
.	.	.	.	1E	.	0r	.
!	!	!LO:TX:t=P:problem=kreska pseudotaktowa	!	!	!	!	!
2C/	te	2c\	-do-	.	.	.	.
4D/	.	2B\	-ra-	1D	te	.	.
4C/	.	.	.	.	.	.	.
4BB/	.	1A	.	.	.	.	.
4AA/	.	.	.	.	.	.	.
=17	=17	=17	=17	=17	=17	=17	=17
1BBn	.	.	.	1r	.	1d	Glo-
.	.	2G/	.	.	.	.	.
!LO:TX:t=P:problem=kreska pseudotaktowa	!	!	!	!	!	!	!
1AA	.	2A/	.	2r	.	2f\	-ri-
!	!	!	!	!LO:TX:t=P:problem=kreska pseudotaktowa	!	!	!
.	.	2.A/	.	2A/	Glo-	1e	-fi-
=18	=18	=18	=18	=18	=18	=18	=18
*	*	*	*	*custos:B	*	*	*
2r	.	.	.	2c\	-ri-	.	.
.	.	4G/	.	.	.	.	.
!	!	!	!	!LO:TX:t=P:problem=kreska pseudotaktowa	!	!	!
!	!	!	!	!LO:LB:g=original	!	!	!
1D	Glo-	4F/	mus	2B\	-fi-	1d	-ca-
.	.	4E/	.	.	.	.	.
.	.	4F/	te	2.A/	-ca-	.	.
!	!	!LO:TX:t=P:problem=kreska pseudotaktowa	!	!	!	!	!
.	.	4D,/	.	.	.	.	.
!	!	!	!	!	!	!LO:TX:t=P:problem=kreska pseudotaktowa	!
1F	-ri-	1A	Glo-	.	.	2c\	-mus
.	.	.	.	4G/	-mus	.	.
=19	=19	=19	=19	=19	=19	=19	=19
.	.	.	.	4F/	.	2d\	.
.	.	.	.	4E/	.	.	.
!LO:TX:t=P:problem=kreska pseudotaktowa	!	!	!	!	!	!	!
2E\	-fi-	1c	-ri-	2.G/	.	1e	.
2C/	-ca-	.	.	.	.	.	.
.	.	.	.	4F/	.	.	.
2D/	-mus	2B\	-fi-	4E/	.	1d	.
!	!	!	!	!LO:TX:t=P:problem=kreska pseudotaktowa	!	!	!
.	.	.	.	4D/	.	.	.
=20	=20	=20	=20	=20	=20	=20	=20
1AA	te	2A/	-ca-	1E	.	.	.
*	*	*custos:F	*	*	*	*	*
!	!	!LO:TX:t=P:problem=kreska pseudotaktowa	!	!	!	!	!
.	.	2A/	-mus	.	.	2c#X\	.
!	!	!LO:LB:g=original	!	!	!	!	!
!LO:TX:t=P:problem=kreska pseudotaktowa	!	!	!	!	!	!	!
1D	.	0F	te	1D	te	0d	te
=21	=21	=21	=21	=21	=21	=21	=21
!	!	!	!	!	!	!LO:TX:t=P:problem=kreska pseudotaktowa	!
2r	.	.	.	2r	.	.	.
!	!	!	!	!LO:TX:t=P:problem=kreska pseudotaktowa	!	!	!
2D/	Gra-	.	.	2d\	Gra-	.	.
!	!	!	!	!	!	!LO:TX:a:t=14.	!
2D/	-ti-	1r	.	2d\	-ti-	1r	.
!LO:TX:t=P:problem=kreska pseudotaktowa	!	!	!	!	!	!	!
2D/	-as	.	.	2d\	-as	.	.
=22	=22	=22	=22	=22	=22	=22	=22
2E\	a-	0r	.	1c	a-	0r	.
2F\	-gi-	.	.	.	.	.	.
2G\	-mus	.	.	1B	-gi-	.	.
2.D/	ti-	.	.	.	.	.	.
=23	=23	=23	=23	=23	=23	=23	=23
.	.	0r	.	2.A\	-mus	0r	.
4E\	.	.	.	.	.	.	.
4F\	.	.	.	.	.	.	.
!LO:TX:t=P:problem=kreska pseudotaktowa	!	!	!	!LO:TX:t=P:problem=kreska pseudotaktowa	!	!	!
4G\	.	.	.	4B\	.	.	.
2A\	.	.	.	2c\	.	.	.
1B	.	.	.	2.d\	ti-	.	.
=24	=24	=24	=24	=24	=24	=24	=24
.	.	0r	.	.	.	0r	.
.	.	.	.	4c\	.	.	.
1A	.	.	.	4B\	.	.	.
.	.	.	.	4A\	.	.	.
.	.	.	.	1B	-bi	.	.
2G\	-bi	.	.	.	.	.	.
=25	=25	=25	=25	=25	=25	=25	=25
*custos:D	*	*	*	*	*	*	*
!LO:TX:t=P:problem=kreska pseudotaktowa	!	!	!	!	!	!	!
!	!	!	!	!LO:TX:t=P:problem=kreska pseudotaktowa	!	!	!
1A	.	0r	.	1A	.	0r	.
!LO:LB:g=original	!	!	!	!	!	!	!
1D	p(ro)-	.	.	2r	.	.	.
.	.	.	.	1A	prop-	.	.
=26	=26	=26	=26	=26	=26	=26	=26
2D/	-pter	0r	.	.	.	0r	.
1D	mag-	.	.	2A/	-ter	.	.
!	!	!	!	!LO:TX:t=P:problem=kreska pseudotaktowa	!	!	!
.	.	.	.	1A	mag-	.	.
!LO:TX:t=P:problem=kreska pseudotaktowa	!	!	!	!	!	!	!
2D/	-nam	.	.	.	.	.	.
=27	=27	=27	=27	=27	=27	=27	=27
*	*	*	*	*custos:G	*	*	*
2C/	.	0r	.	2A/	-na(m)	0r	.
!	!	!	!	!LO:LB:g=original	!	!	!
2BB/	.	.	.	2G/	glo-	.	.
2.AA/	glo-	.	.	2F/	-ri-	.	.
.	.	.	.	1E	-am	.	.
!LO:TX:t=P:problem=kreska pseudotaktowa	!	!	!	!	!	!	!
4BB/	-ri-	.	.	.	.	.	.
=28	=28	=28	=28	=28	=28	=28	=28
2C/	-am	1r	.	.	.	1r	.
2.D/	tu-	.	.	2.F/	tu-	.	.
.	.	2r	.	.	.	2r	.
4C/	.	.	.	4E/	.	.	.
4BB/	.	2D/	Do-	1A	.	2d\	do-
4AA/	.	.	.	.	.	.	.
=29	=29	=29	=29	=29	=29	=29	=29
1BB	.	2D/	-mi-	.	.	2d\	-mi-
!	!	!LO:TX:t=P:problem=kreska pseudotaktowa	!	!	!	!LO:TX:t=P:problem=kreska pseudotaktowa	!
.	.	2D/	-ne	2G/	-am	2d\	-ne
!LO:TX:t=P:problem=kreska pseudotaktowa	!	!	!	!LO:TX:t=P:problem=kreska pseudotaktowa	!	!	!
1AA	-am	2E/	De-	1A	.	1c	de-
.	.	2F/	-us	.	.	.	.
=30	=30	=30	=30	=30	=30	=30	=30
!	!	!	!	!	!	!LO:TX:t=P:problem=kreska pseudotaktowa	!
0r	.	2G/	Rex	0r	.	1B	-us
.	.	2.D/	cae-	.	.	.	.
.	.	.	.	.	.	2.A\	rex
.	.	4E/	.	.	.	.	.
.	.	4F/	.	.	.	.	.
!	!	!LO:TX:t=P:problem=kreska pseudotaktowa	!	!	!	!LO:TX:t=P:problem=kreska pseudotaktowa	!
.	.	4G/	.	.	.	4B\	.
=31	=31	=31	=31	=31	=31	=31	=31
0r	.	2A/	.	0r	.	2c\	cae-
.	.	1B	.	.	.	2.d\	-leſ-
.	.	.	.	.	.	4c\	-tis
.	.	1A	.	.	.	4B\	.
.	.	.	.	.	.	4A\	.
=32	=32	=32	=32	=32	=32	=32	=32
!LO:TX:t=P:problem=kreska pseudotaktowa	!	!	!	!	!	!	!
1r	.	.	.	0r	.	1B	.
!	!	!LO:TX:t=P:problem=kreska pseudotaktowa	!	!	!	!	!
.	.	2G/	-les-	.	.	.	.
!	!	!	!	!	!	!LO:TX:t=P:problem=kreska pseudotaktowa	!
2r	.	2A,/	-tis	.	.	1A	.
2A\	de-	2e\	De-	.	.	.	.
=33	=33	=33	=33	=33	=33	=33	=33
2A\	-us	2e\	-us	0r	.	0r	.
!LO:TX:t=P:problem=kreska pseudotaktowa	!	!LO:TX:t=P:problem=kreska pseudotaktowa	!	!	!	!	!
2A\	pa-	2e\	Pa-	.	.	.	.
2.A\	-ter	2.f\	-ter	.	.	.	.
4G\	om-	4e\	om-	.	.	.	.
=34	=34	=34	=34	=34	=34	=34	=34
!	!	!	!	!LO:TX:t=P:problem=kreska pseudotaktowa	!	!	!
2F\	-ni-	2d\	-ni-	1r	.	1r	.
2E\	-po-	2c\	-po-	.	.	.	.
0D	-tens	2d,\	-tens	2r	.	2r	.
!	!	!LO:TX:t=P:problem=kreska pseudotaktowa	!	!LO:TX:t=P:problem=kreska pseudotaktowa	!	!	!
*	*	*	*ij	*	*	*	*
.	.	2d\	De-	2A/	De-	2f\	De-
=35	=35	=35	=35	=35	=35	=35	=35
!LO:TX:t=P:problem=kreska pseudotaktowa	!	!	!	!	!	!	!
.	.	2d\	-us	2A/	-us	2f\	-us
*	*	*	*	*	*	*custos:f	*
.	.	2d\	Pa-	2A/	pa-	2f\	pa-
!	!	!	!	!	!	!LO:LB:g=original	!
1r	.	2.c\	-ter	2.A/	-ter	2.f\	-ter
!	!	!	!	!	!	!LO:TX:t=P:problem=kreska pseudotaktowa	!
.	.	4B\	om-	4G/	om-	4f\	om-
=36	=36	=36	=36	=36	=36	=36	=36
1r	.	2A/	-ni-	2F/	-ni-	2d\	-ni-
.	.	2G/	-po-	2E/	-po-	2c#X\	-po-
!	!	!LO:TX:t=P:problem=kreska pseudotaktowa	!	!LO:TX:t=P:problem=kreska pseudotaktowa	!	!	!
2r	.	1A	-tens	1D	-tens	2d\	.
!LO:TX:t=P:problem=kreska pseudotaktowa	!	!	!	!	!	!	!
2D/	De-	.	.	.	.	4D/	.
.	.	.	.	.	.	4E/	.
*	*	*	*Xij	*	*ij	*	*
=37	=37	=37	=37	=37	=37	=37	=37
2D/	(us)	2r	.	2r	.	4F/	.
.	.	.	.	.	.	4G/	.
!LO:TX:t=P:problem=kreska pseudotaktowa	!	!	!	!	!	!	!
2D/	Pa-	1A	o-	1F	pa-	4A/	.
.	.	.	.	.	.	4B/	.
2.C/	-ter`	.	.	.	.	4c\	.
.	.	.	.	.	.	4d\	.
.	.	2G/	.	2E/	-ter	1e	.
4BB/	.	.	.	.	.	.	.
=38	=38	=38	=38	=38	=38	=38	=38
2AA/	o(m-	2A/	-mni-	2F/	om-	.	.
*	*	*custos:A	*	*	*	*	*
2GG/	-n)i-	2B/	.	2G/	-ni-	1d	.
!	!	!LO:LB:g=original	!	!	!	!	!
1AA	-po-	1A	-po-	1E	-po-	.	.
.	.	.	.	.	.	2c#X\	.
=39	=39	=39	=39	=39	=39	=39	=39
!LO:TX:t=P:problem=kreska pseudotaktowa	!	!LO:TX:t=P:problem=kreska pseudotaktowa	!	!	!	!	!
0D	-tens	1A	-tens	0D	-tens	0d	-tens
*	*	*	*	*	*Xij	*	*
.	.	2r	.	.	.	.	.
.	.	2d\	Do-	.	.	.	.
=40	=40	=40	=40	=40	=40	=40	=40
2r	.	2d\	-mi-	0r	.	1r	.
2A\	do-	2c\	-ne	.	.	.	.
2A\	-mi-	1B	fi-	.	.	2r	.
!LO:TX:t=P:problem=kreska pseudotaktowa	!	!	!	!	!	!	!
2G\	-ne	.	.	.	.	1d	Do-
=41	=41	=41	=41	=41	=41	=41	=41
!	!	!LO:TX:t=P:problem=kreska pseudotaktowa	!	!	!	!	!
1F	fi-	1A	-li	2r	.	.	.
!	!	!	!	!LO:TX:t=P:problem=kreska pseudotaktowa	!	!LO:TX:t=P:problem=kreska pseudotaktowa	!
.	.	.	.	2A/	Do-	2d\	-mi-
!LO:TX:t=P:problem=kreska pseudotaktowa	!	!	!	!	!	!	!
1E	-li	2r	.	2A/	-mi-	2c\	-ne
*	*	*	*	*custos:F	*	*	*
!	!	!	!	!LO:TX:t=P:problem=kreska pseudotaktowa	!	!	!
.	.	2e\	V-	2G/	-ne	2B\	fi-
!	!	!	!	!LO:LB:g=original	!	!	!
=42	=42	=42	=42	=42	=42	=42	=42
0r	.	4d\	-ni-	1F	fi-	2A/	-li
.	.	4c\	-ge-	.	.	.	.
.	.	4B\	-ni-	.	.	1A	v-
.	.	4A\	-te	.	.	.	.
.	.	2B\	.	1E	-li	.	.
.	.	2B\	.	.	.	2G/	-ni-
=43	=43	=43	=43	=43	=43	=43	=43
!	!	!LO:TX:t=P:problem=kreska pseudotaktowa	!	!	!	!	!
1.D	v-	1A	.	1.A	v-	2F/	-ge-
!	!	!	!	!	!	!LO:TX:t=P:problem=kreska pseudotaktowa	!
.	.	.	.	.	.	2F/	-ni-
.	.	1r	.	.	.	2E/	-te
!LO:TX:t=P:problem=kreska pseudotaktowa	!	!	!	!	!	!	!
2C/	-ni-	.	.	2A/	-ni-	1A	.
=44	=44	=44	=44	=44	=44	=44	=44
2BB/	-ge-	1r	.	2D/	-ge-	.	.
2BB/	-ni-	.	.	2D/	-ni-	2G/	.
2AA,/	-te	1.A	V-	2E/	-te	1A	.
!LO:TX:t=P:problem=kreska pseudotaktowa	!	!	!	!	!	!	!
*	*ij	*	*	*	*	*	*
2D/	v-	.	.	2.F/	.	.	.
=45	=45	=45	=45	=45	=45	=45	=45
4D/	-ni-	.	.	.	.	0d	Je-
4C/	.	.	.	4E/	.	.	.
4BB/	.	2A/	-ni-	1A	.	.	.
4AA/	.	.	.	.	.	.	.
1BB	-ni-	2D/	-ge-	.	.	.	.
.	.	2D/	-ni-	2G/	.	.	.
=46	=46	=46	=46	=46	=46	=46	=46
*	*	*	*	*	*	*custos:A	*
!LO:TX:t=P:problem=kreska pseudotaktowa	!	!LO:TX:t=P:problem=kreska pseudotaktowa	!	!LO:TX:t=P:problem=kreska pseudotaktowa	!	!	!
1AA	-te	0E	-te	1A	.	2c\	-ſu
*	*Xij	*	*	*	*	*	*
!	!	!	!	!	!	!LO:LB:g=original	!
.	.	.	.	.	.	2A/	CHri-
2r	.	.	.	2r	.	2.c\	.
2AA/	Je-	.	.	1A	Je-	.	.
.	.	.	.	.	.	4d\	-ſte
=47	=47	=47	=47	=47	=47	=47	=47
*lig	*	*	*	*	*	*	*
!LO:N:vis=0	!	!	!	!	!	!	!
1C	-ſu	2r	.	.	.	0.e	.
.	.	2A/	Je-	2.c\	.	.	.
*custos:E	*	*	*	*	*	*	*
!LO:TX:t=P:problem=kreska pseudotaktowa	!	!	!	!	!	!	!
!LO:N:vis=0	!	!	!	!	!	!	!
1AA	.	1c	-su	.	.	.	.
.	.	.	.	4B\	-ſu	.	.
.	.	.	.	1A	chri-	.	.
*Xlig	*	*	*	*	*	*	*
!LO:LB:g=original	!	!	!	!	!	!	!
=48	=48	=48	=48	=48	=48	=48	=48
!	!	!	!	!	!	!LO:TX:t=P:problem=kreska pseudotaktowa	!
1E	CHri-	1B	CHris-	.	.	.	.
!	!	!	!	!LO:TX:t=P:problem=kreska pseudotaktowa	!	!	!
.	.	.	.	2G/	.	.	.
2AA/	-ſte	2A,/	-te	2A/	-ſte	1r	.
!	!	!LO:TX:t=P:problem=kreska pseudotaktowa	!	!	!	!	!
*	*	*	*ij	*	*	*	*
1D	.	2A/	Je-	1F	.	.	.
=49	=49	=49	=49	=49	=49	=49	=49
.	.	1c	-su	.	.	1r	.
2C/	.	.	.	2E/	.	.	.
!LO:TX:t=P:problem=kreska pseudotaktowa	!	!	!	!	!	!	!
1D	.	1B	CHris-	2F/	.	2r	.
!	!	!	!	!	!	!LO:TX:t=P:problem=kreska pseudotaktowa	!
.	.	.	.	2.D/	.	2d\	Je-
=50	=50	=50	=50	=50	=50	=50	=50
2r	.	2A,/	-te	.	.	2.f\	-ſu
.	.	.	.	4E/	.	.	.
!LO:TX:t=P:problem=kreska pseudotaktowa	!	!	!	!	!	!	!
2D/	Je-	2.F/	V-	4F/	.	.	.
.	.	.	.	4G/	.	4e\	.
*	*	*	*	*custos:A	*	*	*
!	!	!	!	!LO:TX:t=P:problem=kreska pseudotaktowa	!	!	!
1.F	-ſu	.	.	1A	.	2d\	.
.	.	4G/	-ni-	.	.	.	.
.	.	1A	-ge-	.	.	2c\	.
!	!	!	!	!LO:LB:g=original	!	!	!
=51	=51	=51	=51	=51	=51	=51	=51
.	.	.	.	1r	.	0f	CHri-
!LO:TX:t=P:problem=kreska pseudotaktowa	!	!	!	!	!	!	!
2E\	CHri-	1G	-ni-	.	.	.	.
1D	.	.	.	2r	.	.	.
!	!	!LO:TX:t=P:problem=kreska pseudotaktowa	!	!	!	!	!
.	.	2F/	-te	2A/	Je-	.	.
=52	=52	=52	=52	=52	=52	=52	=52
2C/	-ſte	2G/	Je-	1.c	-ſu	0e	-ſte
4AA/	.	1A	-ſu	.	.	.	.
!LO:TX:t=P:problem=kreska pseudotaktowa	!	!	!	!	!	!	!
4BB/	.	.	.	.	.	.	.
4C/	.	.	.	.	.	.	.
4D/	.	.	.	.	.	.	.
!LO:TX:t=P:problem=kreska pseudotaktowa	!	!	!	!LO:TX:t=P:problem=kreska pseudotaktowa	!	!	!
2E\	.	2G/	chri-	2B\	chri-	.	.
=53	=53	=53	=53	=53	=53	=53	=53
*	*	*custos:B	*	*	*	*	*
2.F\	.	0A	-ſte	2.A/	-ſte	1c	.
*	*	*	*Xij	*	*	*	*
!LO:TX:t=P:problem=kreska pseudotaktowa	!	!	!	!	!	!	!
4E\	.	.	.	4G/	.	.	.
2D/	.	.	.	2F/	.	2d\	.
2C/	.	.	.	2E/	.	1e	.
!	!	!LO:LB:g=original	!	!	!	!	!
=54	=54	=54	=54	=54	=54	=54	=54
*	*	*lig	*	*	*	*	*
!	!	!LO:N:vis=0	!	!	!	!	!
2BB-X/	.	1B	Je-	2F/	.	.	.
2GG/	.	.	.	2G/	.	1d	.
!	!	!LO:N:vis=0	!	!	!	!	!
1AA	.	1A	.	1E	.	.	.
.	.	.	.	.	.	2c#X\	.
*	*	*Xlig	*	*	*	*	*
=55	=55	=55	=55	=55	=55	=55	=55
*lig	*	*lig	*	*	*	*	*
!LO:N:vis=0	!	!LO:N:vis=0	!	!	!	!	!
1BB-X	.	1F	-su	00D	.	00d;	.
!LO:N:vis=0	!	!LO:N:vis=0	!	!	!	!	!
1GG	.	1.B	.	.	.	.	.
*Xlig	*	*Xlig	*	*	*	*	*
=56	=56	=56	=56	=56	=56	=56	=56
!LO:N:vis=00	!	!	!	!	!	!	!
0D	.	.	.	.	.	.	.
.	.	4A/	CHri-	.	.	.	.
.	.	4G/	.	.	.	.	.
.	.	1A	-ste	.	.	.	.
!LO:LB:g=original	!	!	!	!	!	!	!
=57||	=57||	=57||	=57||	=57||	=57||	=57||	=57||
*M2/1	*	*yyM2/1	*	*yyM2/1	*	*M2/1	*
*met(c|)	*	*yymet(c|)	*	*yymet(c|)	*	*met(c|)	*
!	!	!LO:TX:t=P:rysunek:problem	!	!	!	!	!
!LO:TX:b:t=à 2.	!	!LO:TX:a:t=Domine DE(us).\n Tacet.	!	!LO:TX:a:t=Domine Deus Tacet	!	!	!
1.D	Do-	0ryy	.	0ryy	.	0r	.
!LO:TX:t=P:problem=kreska pseudotaktowa	!	!	!	!	!	!	!
2D/	-mi-	.	.	.	.	.	.
=58	=58	=58	=58	=58	=58	=58	=58
1F	-ne	0ryy	.	0ryy	.	0r	.
!LO:TX:t=P:problem=kreska pseudotaktowa	!	!	!	!	!	!	!
1G	De-	.	.	.	.	.	.
=59	=59	=59	=59	=59	=59	=59	=59
2.A\	-us	0ryy	.	0ryy	.	1.D	Do-
!LO:TX:t=P:problem=kreska pseudotaktowa	!	!	!	!	!	!	!
4G\	.	.	.	.	.	.	.
4F\	.	.	.	.	.	.	.
4E\	.	.	.	.	.	.	.
*	*	*	*	*	*	*custos:F	*
2.D/	.	.	.	.	.	2D/	-mi-
!	!	!	!	!	!	!LO:LB:g=original	!
=60	=60	=60	=60	=60	=60	=60	=60
.	.	0ryy	.	0ryy	.	1F	-ne
4C/	.	.	.	.	.	.	.
4BB/	.	.	.	.	.	.	.
!LO:TX:t=P:problem=kreska pseudotaktowa	!	!	!	!	!	!	!
4AA/	.	.	.	.	.	.	.
1BB	.	.	.	.	.	1G	De-
=61	=61	=61	=61	=61	=61	=61	=61
1AA	.	0ryy	.	0ryy	.	0A	-us
2r	.	.	.	.	.	.	.
!LO:TX:t=P:problem=kreska pseudotaktowa	!	!	!	!	!	!	!
2D/	a-	.	.	.	.	.	.
=62	=62	=62	=62	=62	=62	=62	=62
1.F	-gnus	0ryy	.	0ryy	.	2r	.
!	!	!	!	!	!	!LO:TX:t=P:problem=kreska pseudotaktowa	!
.	.	.	.	.	.	2A/	a-
.	.	.	.	.	.	1.c	-gnus
!LO:TX:t=P:problem=kreska pseudotaktowa	!	!	!	!	!	!	!
2E\	De-	.	.	.	.	.	.
=63	=63	=63	=63	=63	=63	=63	=63
2C/	-i	0ryy	.	0ryy	.	.	.
2D/	.	.	.	.	.	2B/	de-
2E\	.	.	.	.	.	2G/	-i
2.F\	.	.	.	.	.	2.A/	.
=64	=64	=64	=64	=64	=64	=64	=64
.	.	0ryy	.	0ryy	.	.	.
4E\	.	.	.	.	.	4G/	.
!LO:TX:t=P:problem=kreska pseudotaktowa	!	!	!	!	!	!LO:TX:t=P:problem=kreska pseudotaktowa	!
1D	.	.	.	.	.	2F/	.
.	.	.	.	.	.	1E	.
!LO:TX:t=P:problem=kreska pseudotaktowa	!	!	!	!	!	!	!
2C/	.	.	.	.	.	.	.
=65	=65	=65	=65	=65	=65	=65	=65
1D,	.	0ryy	.	0ryy	.	4D/	.
.	.	.	.	.	.	4E/	.
.	.	.	.	.	.	4F/	.
!	!	!	!	!	!	!LO:TX:t=P:problem=kreska pseudotaktowa	!
.	.	.	.	.	.	4G/	.
2F\	ag-	.	.	.	.	4A/	.
.	.	.	.	.	.	4B\	.
*custos:G	*	*	*	*	*	*	*
!LO:TX:t=P:problem=kreska pseudotaktowa	!	!	!	!	!	!	!
2E\	-n(us)	.	.	.	.	2c\	.
!LO:LB:g=original	!	!	!	!	!	!	!
=66	=66	=66	=66	=66	=66	=66	=66
2.G\	De-	0ryy	.	0ryy	.	2B\	.
!	!	!	!	!	!	!LO:TX:t=P:problem=kreska pseudotaktowa	!
.	.	.	.	.	.	2d\	.
4F\	.	.	.	.	.	.	.
2E/	.	.	.	.	.	2c\	.
!LO:TX:t=P:problem=kreska pseudotaktowa	!	!	!	!	!	!	!
2D/	.	.	.	.	.	1B\	.
=67	=67	=67	=67	=67	=67	=67	=67
2C/	.	0ryy	.	0ryy	.	.	.
4BB/	.	.	.	.	.	1A	.
4AA/	.	.	.	.	.	.	.
1BB	.	.	.	.	.	.	.
.	.	.	.	.	.	2G/	.
=68	=68	=68	=68	=68	=68	=68	=68
!LO:TX:t=P:problem=kreska pseudotaktowa	!	!	!	!	!	!	!
1AA	-i	0ryy	.	0ryy	.	0.A	.
2r	.	.	.	.	.	.	.
1D	fi-	.	.	.	.	.	.
=69	=69	=69	=69	=69	=69	=69	=69
!	!	!	!	!	!	!LO:TX:t=P:problem=kreska pseudotaktowa	!
.	.	0ryy	.	0ryy	.	.	.
!LO:TX:t=P:problem=kreska pseudotaktowa	!	!	!	!	!	!	!
2D/	-li-	.	.	.	.	.	.
2C/	-is	.	.	.	.	2r	.
2.D\	pa-	.	.	.	.	1A	fi-
=70	=70	=70	=70	=70	=70	=70	=70
.	.	0ryy	.	0ryy	.	.	.
4E\	.	.	.	.	.	.	.
!	!	!	!	!	!	!LO:TX:t=P:problem=kreska pseudotaktowa	!
4F\	.	.	.	.	.	2A/	-li-
!LO:TX:t=P:problem=kreska pseudotaktowa	!	!	!	!	!	!	!
4D/	.	.	.	.	.	.	.
2E/	.	.	.	.	.	2G/	-us
2AA/	-tris	.	.	.	.	2.A/	pa-
=71	=71	=71	=71	=71	=71	=71	=71
2r	.	0ryy	.	0ryy	.	.	.
*	*	*	*	*	*	*custos:c	*
.	.	.	.	.	.	4B\	.
!LO:TX:t=P:problem=kreska pseudotaktowa	!	!	!	!	!	!	!
!	!	!	!	!	!	!LO:LB:g=original	!
2AA/	fi-	.	.	.	.	4c\	.
!	!	!	!	!	!	!LO:TX:t=P:problem=kreska pseudotaktowa	!
.	.	.	.	.	.	4A\	.
2GG/	-li-	.	.	.	.	2B\	.
2.AA/	-is	.	.	.	.	2E/	-tris
=72	=72	=72	=72	=72	=72	=72	=72
.	.	0ryy	.	0ryy	.	2r	.
4BB/	.	.	.	.	.	.	.
!	!	!	!	!	!	!LO:TX:t=P:problem=kreska pseudotaktowa	!
4C/	.	.	.	.	.	2A/	fi-
!LO:TX:t=P:problem=kreska pseudotaktowa	!	!	!	!	!	!	!
4AA/	.	.	.	.	.	.	.
2BB/	.	.	.	.	.	2G/	-li-
2AA/	.	.	.	.	.	2.A/	-us
=73	=73	=73	=73	=73	=73	=73	=73
2D/	pa-	0ryy	.	0ryy	.	.	.
.	.	.	.	.	.	4B\	.
*custos:D	*	*	*	*	*	*	*
!LO:TX:t=P:problem=kreska pseudotaktowa	!	!	!	!	!	!	!
2C/	.	.	.	.	.	4c\	.
!	!	!	!	!	!	!LO:TX:t=P:problem=kreska pseudotaktowa	!
.	.	.	.	.	.	4A\	.
!LO:LB:g=original	!	!	!	!	!	!	!
4D/	.	.	.	.	.	2B\	pa-
4E/	.	.	.	.	.	.	.
4F\	.	.	.	.	.	4A\	.
!LO:TX:t=P:problem=kreska pseudotaktowa	!	!	!	!	!	!	!
4G\	.	.	.	.	.	4B\	.
=74	=74	=74	=74	=74	=74	=74	=74
1A	.	0ryy	.	0ryy	.	4c\	.
.	.	.	.	.	.	4d\	.
.	.	.	.	.	.	4e\	.
!	!	!	!	!	!	!LO:TX:t=P:problem=kreska pseudotaktowa	!
.	.	.	.	.	.	4c\	.
2F\	.	.	.	.	.	2d\	.
1G	.	.	.	.	.	1e	.
=75	=75	=75	=75	=75	=75	=75	=75
.	.	0ryy	.	0ryy	.	.	.
2F\	.	.	.	.	.	1d	.
1E	-tris	.	.	.	.	.	.
!	!	!	!	!	!	!LO:TX:a:t=P:problem=# above	!
.	.	.	.	.	.	2c#X\	.
=76	=76	=76	=76	=76	=76	=76	=76
0D	.	0ryy	.	0ryy	.	0d;	-tris
=77||	=77||	=77||	=77||	=77||	=77||	=77||	=77||
*M2/1	*	*M2/1	*	*M2/1	*	*M2/1	*
*met(c|)	*	*met(c|)	*	*met(c|)	*	*met(c|)	*
1D	Qui	1D	Qui	0r	.	0r	.
2D/	tol-	2F/	tol-	.	.	.	.
!LO:TX:t=P:problem=kreska pseudotaktowa	!	!LO:TX:t=P:problem=kreska pseudotaktowa	!	!	!	!	!
2C/	-lis	2E/	-lis	.	.	.	.
=78	=78	=78	=78	=78	=78	=78	=78
2D/	pec-	2.F/	pec-	0r	.	0r	.
2.D/	-ca-	.	.	.	.	.	.
.	.	4E/	-ca-	.	.	.	.
.	.	4F/	-ta	.	.	.	.
4C/	-ta	4G/	.	.	.	.	.
4BB/	.	1A	mun-	.	.	.	.
!LO:TX:t=P:problem=kreska pseudotaktowa	!	!	!	!	!	!	!
4AA/	.	.	.	.	.	.	.
=79	=79	=79	=79	=79	=79	=79	=79
2BB/	mun-	.	.	1D	Qui	1d	Qui
!	!	!LO:TX:t=P:problem=kreska pseudotaktowa	!	!	!	!	!
2BB/	-di	2G/	.	.	.	.	.
!LO:TX:t=P:problem=kreska pseudotaktowa	!	!	!	!	!	!	!
1AA	.	1A	-di	2F/	tol-	2d\	tol-
.	.	.	.	2E/	-lis	2c\	-lis
=80	=80	=80	=80	=80	=80	=80	=80
0r	.	0r	.	2.F/	pec-	2d\	pec-
.	.	.	.	.	.	2d\	-ca-
.	.	.	.	4E/	-ca-	.	.
.	.	.	.	4F/	-ta	4d\	-ta
.	.	.	.	4G/	.	4c\	.
.	.	.	.	1A	mun-	4B\	.
.	.	.	.	.	.	4A\	.
=81	=81	=81	=81	=81	=81	=81	=81
0r	.	2r	.	.	.	2B\	.
!	!	!LO:TX:t=P:problem=kreska pseudotaktowa	!	!	!	!	!
*	*	*	*ij	*	*	*	*
.	.	2d\	Qui	2G/	-di	2B\	mun-
*	*	*	*	*lig	*	*	*
!	!	!	!	!LO:N:vis=0	!	!	!
.	.	2d\	tol-	1A	.	2A,/	-di
!	!	!	!	!	!	!LO:TX:t=P:problem=kreska pseudotaktowa	!
.	.	2c\	-lis	.	.	2A/	mi-
=82	=82	=82	=82	=82	=82	=82	=82
!LO:TX:t=P:problem=kreska pseudotaktowa	!	!	!	!	!	!	!
!	!	!	!	!LO:N:vis=0	!	!	!
1r	.	2d\	pec-	1B	.	2A/	-ſe-
.	.	2.d\	-ca-	.	.	2G/	-re-
*	*	*	*	*Xlig	*	*	*
!	!	!	!	!LO:TX:t=P:problem=kreska pseudotaktowa	!	!	!
2r	.	.	.	1A	.	2A/	-re
.	.	4c\	-ta	.	.	.	.
!LO:TX:t=P:problem=kreska pseudotaktowa	!	!	!	!	!	!	!
2A\	mi-	4B\	.	.	.	2A/	no-
.	.	4A\	.	.	.	.	.
=83	=83	=83	=83	=83	=83	=83	=83
*custos:G	*	*	*	*	*	*	*
2A\	-ſe-	2B\	mun-	2r	.	1E	-bis
!LO:LB:g=original	!	!	!	!	!	!	!
!LO:TX:t=P:problem=kreska pseudotaktowa	!	!	!	!	!	!	!
2G\	-re-	2B\	-di	2e\	mi-	.	.
2A\	-re	2A,/	.	2e\	-ſe-	1c	mi-
*	*	*	*Xij	*	*	*	*
1A	no-	1c	mi-	2e\	-re-	.	.
=84	=84	=84	=84	=84	=84	=84	=84
.	.	.	.	2c\	-re	2A/	-ſe-
!LO:TX:t=P:problem=kreska pseudotaktowa	!	!LO:TX:t=P:problem=kreska pseudotaktowa	!	!	!	!	!
2G\	-bis	2B\	-ſe-	2.d\	no-	1B	-re-
1F	.	2c\	-re-	.	.	.	.
.	.	.	.	4c\	.	.	.
.	.	2d\	-re	4B\	.	1A	-re
.	.	.	.	4A\	.	.	.
=85	=85	=85	=85	=85	=85	=85	=85
*	*	*custos:c	*	*	*	*	*
1E	.	1e	no-	1B	.	.	.
.	.	.	.	.	.	2G#X/	no-
*	*	*	*	*	*	*lig	*
!	!	!	!	!	!	!LO:N:vis=0	!
!	!	!LO:LB:g=original	!	!	!	!	!
2AA/	.	1c	-bis	1A	-bis	1A	.
!LO:TX:t=P:problem=kreska pseudotaktowa	!	!	!	!	!	!	!
2C/	.	.	.	.	.	.	.
=86	=86	=86	=86	=86	=86	=86	=86
!	!	!	!	!	!	!LO:N:vis=0	!
2BB/	.	2r	.	2r	.	1B	.
2GG/	.	2d\	Qui	2D/	Qui	.	.
*	*	*	*	*	*	*Xlig	*
1AA	.	2d\	tol-	2F/	tol-	0A	-bis
*	*	*	*	*custos:F	*	*	*
!	!	!	!	!LO:TX:t=P:problem=kreska pseudotaktowa	!	!	!
!	!	!LO:TX:t=P:problem=kreska pseudotaktowa	!	!	!	!	!
.	.	2c\	-lis	2E/	-lis	.	.
!	!	!	!	!LO:LB:g=original	!	!	!
=87	=87	=87	=87	=87	=87	=87	=87
!LO:TX:t=P:problem=kreska pseudotaktowa	!	!	!	!	!	!LO:TX:t=P:problem=kreska pseudotaktowa	!
1D	.	2d\	pec-	2.F/	pec-	.	.
.	.	2.d\	-ca-	.	.	.	.
.	.	.	.	4E/	-ca-	.	.
1r	.	.	.	4F/	-ta	1r	.
.	.	4c\	.	4G/	.	.	.
.	.	4B\	.	1A	mun-	.	.
.	.	4A\	-ta	.	.	.	.
=88	=88	=88	=88	=88	=88	=88	=88
1r	.	2B\	mun-	.	.	1r	.
.	.	2B\	-di	2G/	-di	.	.
!	!	!	!	!LO:TX:t=P:problem=kreska pseudotaktowa	!	!	!
2r	.	1A	.	1A	.	2r	.
2D/	Qui	.	.	.	.	2d\	Qui
=89	=89	=89	=89	=89	=89	=89	=89
2F\	tol-	0r	.	0r	.	2d\	tol-
!LO:TX:t=P:problem=kreska pseudotaktowa	!	!	!	!	!	!	!
2E\	-lis	.	.	.	.	2c\	-lis
2.F\	pec-	.	.	.	.	2d\	pec-
.	.	.	.	.	.	1d	-ca-
!LO:TX:t=P:problem=kreska pseudotaktowa	!	!	!	!	!	!	!
4E\	-ca-	.	.	.	.	.	.
=90	=90	=90	=90	=90	=90	=90	=90
4F\	-ta	0r	.	0r	.	.	.
4G\	.	.	.	.	.	.	.
1A	mun-	.	.	.	.	2c\	-ta
.	.	.	.	.	.	1B	mun-
2G\	-di	.	.	.	.	.	.
=91	=91	=91	=91	=91	=91	=91	=91
*	*	*	*	*	*	*custos:f	*
!LO:TX:t=P:problem=kreska pseudotaktowa	!	!	!	!	!	!	!
1A	.	1r	.	1r	.	1A	-di
!	!	!	!	!	!	!LO:LB:g=original	!
1.D	ſuſ-	1.A	ſuſ-	1.F	ſuſ-	1.f	ſuſ-
=92	=92	=92	=92	=92	=92	=92	=92
.	.	.	.	.	.	.	.
2C/	-ci-	2c\	-ci-	2G/	-ci-	2e\	-ci-
!	!	!	!	!LO:TX:b:t=g.	!	!	!
!LO:TX:a:t=4	!	!LO:TX:t=P:problem=kreska pseudotaktowa	!	!LO:TX:a:t=2	!	!	!
00C	-pe	1c	-pe	0G	-pe	00e	-pe
=93	=93	=93	=93	=93	=93	=93	=93
.	.	2r	.	.	.	.	.
.	.	2.c\	de-	.	.	.	.
.	.	.	.	2r	.	.	.
.	.	4B\	-pre-	.	.	.	.
!	!	!LO:TX:t=P:problem=kreska pseudotaktowa	!	!	!	!	!
.	.	2A/	-ca-	2.c\	de-	.	.
=94	=94	=94	=94	=94	=94	=94	=94
!LO:TX:t=P:problem=kreska pseudotaktowa	!	!	!	!	!	!	!
.	.	2G/	-ti-	.	.	.	.
.	.	.	.	4B\	-pre-	.	.
!	!	!	!	!LO:TX:t=P:problem=kreska pseudotaktowa	!	!	!
.	.	2A/	-o-	2A/	-ca-	.	.
2r	.	2E/	-nem	2G/	-ti-	1r	.
2F\	de-	1c	no-	2A/	-o-	.	.
=95	=95	=95	=95	=95	=95	=95	=95
2E\	-pre-	.	.	2E/	-nem	2r	.
*custos:C	*	*	*	*	*	*	*
!LO:TX:t=P:problem=kreska pseudotaktowa	!	!	!	!	!	!	!
!	!	!	!	!	!	!LO:TX:t=P:problem=kreska pseudotaktowa	!
2D/	-ca-	2F/	.	2A/	noſ-	2f\	de-
!LO:LB:g=original	!	!	!	!	!	!	!
2C/	-ti-	2G/	.	2c\	-tram	2e\	-pre-
!	!	!LO:TX:t=P:problem=kreska pseudotaktowa	!	!	!	!	!
2D/	-o-	2F,/	-ſtram	2B\	.	2d\	-ca-
=96	=96	=96	=96	=96	=96	=96	=96
!	!	!	!	!LO:TX:t=P:problem=kreska pseudotaktowa	!	!	!
2AA/	-nem	2r	.	1A	.	2c\	-ti-
1D	no-	1f	de-	.	.	2d\	-o-
!	!	!	!	!	!	!LO:TX:t=P:problem=kreska pseudotaktowa	!
.	.	.	.	2r	.	1A	-nem
2C/	.	2e\	-pre-	2c\	de-	.	.
=97	=97	=97	=97	=97	=97	=97	=97
!LO:TX:t=P:problem=kreska pseudotaktowa	!	!	!	!	!	!	!
1D	-ſtram	1d	-ca-	2B\	-pre-	2r	.
*	*	*	*	*	*	*	*ij
.	.	.	.	1A	-ca-	2f\	de-
1r	.	2c\	-ti-	.	.	2e\	-pre-
!	!	!	!	!LO:TX:t=P:problem=kreska pseudotaktowa	!	!	!
.	.	2d\	-o-	2G/	-ti-	2d\	-ca-
=98	=98	=98	=98	=98	=98	=98	=98
*	*	*	*	*custos:D	*	*	*
2r	.	1A	-nem	2A/	-o-	2c\	-ti-
!	!	!	!	!LO:LB:g=original	!	!	!
2.F\	de-	.	.	4D/	-nem	2d\	-o-
!	!	!	!	!LO:TX:t=P:problem=kreska pseudotaktowa	!	!	!
.	.	.	.	4E/	.	.	.
.	.	2r	.	4F/	.	1A	-nem
*	*	*	*	*	*	*	*Xij
4E\	-pre-	.	.	4G/	.	.	.
!LO:TX:t=P:problem=kreska pseudotaktowa	!	!LO:TX:t=P:problem=kreska pseudotaktowa	!	!	!	!	!
2D/	-ca-	2f\	de-	1A	.	.	.
=99	=99	=99	=99	=99	=99	=99	=99
2C/	-ti-	2e\	-pre-	.	.	2.A/	.
*	*	*custos:c	*	*	*	*	*
!	!	!	!	!LO:TX:t=P:problem=kreska pseudotaktowa	!	!	!
2D/	-o-	2d\	-ca-	2F/	no-	.	.
.	.	.	.	.	.	4B\	.
!	!	!LO:LB:g=original	!	!	!	!	!
2.AA/	-nem	2c\	ti-	2E/	.	4c\	.
.	.	.	.	.	.	4d\	.
.	.	1c	-o-	2.A/	-ſtram	1e	nost-
!LO:TX:t=P:problem=kreska pseudotaktowa	!	!	!	!	!	!	!
4BB/	no-	.	.	.	.	.	.
=100	=100	=100	=100	=100	=100	=100	=100
2C/	-ſtram	.	.	.	.	.	.
.	.	.	.	4G/	.	.	.
2D/	.	2B\	-nem	2F/	.	1d	.
1AA	.	1A	nos-	1E	.	.	.
!	!	!	!	!	!	!LO:TX:a:t=P:problem=# above	!
.	.	.	.	.	.	2c#X\	.
=101	=101	=101	=101	=101	=101	=101	=101
!LO:TX:t=P:problem=kreska pseudotaktowa	!	!LO:TX:t=P:problem=kreska pseudotaktowa	!	!LO:TX:t=P:problem=kreska pseudotaktowa	!	!	!
1D	.	0A	-tram	0D	.	00d	-ram
2r	.	.	.	.	.	.	.
2D/	Qui	.	.	.	.	.	.
=102	=102	=102	=102	=102	=102	=102	=102
1D	-ſe-	2r	.	0r	.	.	.
.	.	2A/	Qui	.	.	.	.
!LO:TX:t=P:problem=kreska pseudotaktowa	!	!	!	!	!	!	!
1D	-des	1A	-ſe-	.	.	.	.
=103	=103	=103	=103	=103	=103	=103	=103
2r	.	1A	-des	0r	.	0r	.
2D/	ad	.	.	.	.	.	.
2D/	dex-	2r	.	.	.	.	.
!LO:TX:t=P:problem=kreska pseudotaktowa	!	!LO:TX:t=P:problem=kreska pseudotaktowa	!	!	!	!	!
2C/	-te-	2A/	ad	.	.	.	.
=104	=104	=104	=104	=104	=104	=104	=104
*custos:E	*	*	*	*	*	*	*
2D/	-ram	2A/	dex-	0r	.	0r	.
!LO:LB:g=original	!	!	!	!	!	!	!
2E\	pat-	2G/	-te-	.	.	.	.
!LO:TX:t=P:problem=kreska pseudotaktowa	!	!	!	!	!	!	!
1D	-ris	2A/	-ra(m)	.	.	.	.
.	.	2B/	Pat-	.	.	.	.
=105	=105	=105	=105	=105	=105	=105	=105
!	!	!LO:TX:t=P:problem=kreska pseudotaktowa	!	!	!	!	!
2r	.	1A	-ris	0r	.	0r	.
2D/	mi-	.	.	.	.	.	.
2D/	-ſe-	2r	.	.	.	.	.
!LO:TX:t=P:problem=kreska pseudotaktowa	!	!	!	!	!	!	!
2C/	-re-	2A/	mi-	.	.	.	.
=106	=106	=106	=106	=106	=106	=106	=106
!	!	!	!	!LO:TX:t=P:problem=kreska pseudotaktowa	!	!	!
2D/	-re	2A/	-ſe-	1r	.	2r	.
!	!	!	!	!	!	!LO:TX:t=P:problem=kreska pseudotaktowa	!
2BB/	no-	2G/	-re-	.	.	2d\	mi-
!LO:TX:t=P:problem=kreska pseudotaktowa	!	!	!	!	!	!	!
1AA	-bis	1A	-re	2r	.	2d\	-ſe-
!	!	!	!	!LO:TX:t=P:problem=kreska pseudotaktowa	!	!	!
.	.	.	.	2A/	mi-	2c#X\	-re-
=107	=107	=107	=107	=107	=107	=107	=107
1r	.	2F/	no-	2A/	-ſe-	2d\	-re
!	!	!LO:TX:t=P:problem=kreska pseudotaktowa	!	!	!	!	!
.	.	2E/	-bis	2G/	-re-	2B\	no-
2r	.	2r	.	2A/	-re	1A	-bis
!LO:TX:t=P:problem=kreska pseudotaktowa	!	!	!	!	!	!	!
*	*ij	*	*	*	*	*	*ij
2A\	mi-	2c\	mi-	2F/	no-	.	.
=108	=108	=108	=108	=108	=108	=108	=108
!	!	!	!	!LO:TX:t=P:problem=kreska pseudotaktowa	!	!	!
2A\	-ſe-	2c\	-ſe-	1E	-bis	2r	.
2G\	-re-	2B\	-re-	.	.	2e\	mi-
2A\	-re	2c\	-re	1A	mi-	2e\	-ſe-
*	*	*	*	*	*	*custos:e	*
2F\	no-	2A/	no-	.	.	2d\	-re-
!	!	!	!	!	!	!LO:LB:g=original	!
=109	=109	=109	=109	=109	=109	=109	=109
1E	.	2A/	.	2B\	-ſe-	1e	-re
*	*	*	*	*	*	*	*Xij
!	!	!LO:TX:t=P:problem=kreska pseudotaktowa	!	!	!	!	!
.	.	2G/	.	2B\	-re-	.	.
!LO:TX:t=P:problem=kreska pseudotaktowa	!	!	!	!LO:TX:t=P:problem=kreska pseudotaktowa	!	!	!
1AA	-bis	1A	.	1c	-re	2r	.
!	!	!	!	!	!	!LO:TX:t=P:problem=kreska pseudotaktowa	!
.	.	.	.	.	.	2e\	mi-
*	*Xij	*	*	*	*	*	*
=110	=110	=110	=110	=110	=110	=110	=110
2AA/	mi-	1F	bis	2A/	no-	2e\	-ſe-
2D/	-ſe-	.	.	1B	.	2d\	-re-
2C/	-re-	2E,/	.	.	.	2e\	-re
*	*	*	*	*custos:G	*	*	*
!	!	!LO:TX:t=P:problem=kreska pseudotaktowa	!	!	!	!	!
!	!	!LO:TX:t=P:problem=tekst wpisany ołówkiem	!	!	!	!	!
2AA/	-re	2E/	Quo-	1A	.	2c\	no-
!	!	!	!	!LO:LB:g=original	!	!	!
=111	=111	=111	=111	=111	=111	=111	=111
1E	no-	2G/	-ni-	.	.	1B	.
!	!	!	!	!LO:TX:t=P:problem=kreska pseudotaktowa	!	!	!
.	.	2G/	-a(m)	2G/	.	.	.
!LO:TX:t=P:problem=kreska pseudotaktowa	!	!	!	!	!	!	!
1AA,	-bis	1.A	tu	2F/	.	0A	-bis,
.	.	.	.	2E/	.	.	.
=112	=112	=112	=112	=112	=112	=112	=112
2r	.	.	.	1F	.	.	.
*	*	*custos:G	*	*	*	*	*
2AA/	Quo-	2A/	So-	.	.	.	.
!	!	!	!	!	!	!LO:TX:t=P:problem=kreska pseudotaktowa	!
!	!	!LO:LB:g=original	!	!	!	!	!
2C/	-ni-	2G/	-lus	1E	-bis	1r	.
*custos:D	*	*	*	*	*	*	*
!LO:TX:t=P:problem=kreska pseudotaktowa	!	!	!	!	!	!	!
2C/	-am	2A/	San-	.	.	.	.
!LO:LB:g=original	!	!	!	!	!	!	!
=113	=113	=113	=113	=113	=113	=113	=113
1.D	tu	2B/	.	0r	.	0r	.
.	.	1A	.	.	.	.	.
!LO:TX:t=P:problem=kreska pseudotaktowa	!	!	!	!	!	!	!
2D/	ſo-	4G/	.	.	.	.	.
!	!	!LO:TX:t=P:problem=kreska pseudotaktowa	!	!	!	!	!
.	.	4F/	.	.	.	.	.
=114	=114	=114	=114	=114	=114	=114	=114
2.C/	-lus	2A/	.	2r	.	1r	.
!	!	!	!	!LO:TX:t=P:problem=kreska pseudotaktowa	!	!	!
.	.	2G/	.	2E/	Quo-	.	.
4D/	San-	.	.	.	.	.	.
1E	.	4E/	.	2G/	-ni-	2r	.
.	.	4F/	.	.	.	.	.
.	.	4G/	.	2G/	-am	2c\	Quo-
!	!	!LO:TX:t=P:problem=kreska pseudotaktowa	!	!	!	!	!
.	.	4E/	.	.	.	.	.
=115	=115	=115	=115	=115	=115	=115	=115
*lig	*	*	*	*	*	*	*
!LO:N:vis=0	!	!	!	!	!	!	!
1D	-ctus	1F	-ctus	1.A	tu	2d\	-ni-
.	.	.	.	.	.	2d\	-a(m)
!LO:TX:t=P:problem=kreska pseudotaktowa	!	!	!	!	!	!	!
!LO:N:vis=0	!	!	!	!	!	!	!
1AA	.	0E	.	.	.	1.e	tu
.	.	.	.	2A/	ſo-	.	.
*Xlig	*	*	*	*	*	*	*
=116	=116	=116	=116	=116	=116	=116	=116
!	!	!LO:TX:t=P:problem=kreska pseudotaktowa	!	!	!	!	!
0r	.	.	.	2G/	-lus	.	.
!	!	!	!	!	!	!LO:TX:t=P:problem=kreska pseudotaktowa	!
.	.	.	.	2A/	San-	2e\	ſo-
.	.	1r	.	1B	.	2d\	-lus
.	.	.	.	.	.	2e\	San-
=117	=117	=117	=117	=117	=117	=117	=117
*	*	*	*	*lig	*	*	*
!	!	!	!	!LO:N:vis=0	!	!	!
2r	.	2r	.	1A	-ctus	1f	.
!LO:TX:t=P:problem=kreska pseudotaktowa	!	!LO:TX:t=P:problem=kreska pseudotaktowa	!	!	!	!	!
2A\	tu	2c\	Tu	.	.	.	.
!	!	!	!	!	!	!LO:TX:t=P:problem=kreska pseudotaktowa	!
!	!	!	!	!LO:N:vis=0	!	!	!
2A\	ſo-	2c\	ſo-	1E	.	1e	-ctus
2G\	-lus	2B\	-lus	.	.	.	.
*	*	*	*	*Xlig	*	*	*
=118	=118	=118	=118	=118	=118	=118	=118
!	!	!	!	!LO:TX:t=P:problem=kreska pseudotaktowa	!	!	!
1A	Do-	1c	Do-	1r	.	2r	.
.	.	.	.	.	.	2e\	Tu
2G\	-mi-	2B\	.	2r	.	2e\	ſo-
!LO:TX:t=P:problem=kreska pseudotaktowa	!	!	!	!	!	!	!
2F\	-nus	2A/	-mi-	2A/	Tu	2d\	-lus
=119	=119	=119	=119	=119	=119	=119	=119
2E,\	Tu	1B	.	2A/	ſo-	1e	D(o-
2E\	ſo-	.	.	2G/	-lus	.	.
!	!	!LO:TX:t=P:problem=kreska pseudotaktowa	!	!	!	!	!
2F\	-lus	1A	-nus	1A	do-	1d	-mi)-
2D/	do-	.	.	.	.	.	.
=120	=120	=120	=120	=120	=120	=120	=120
!LO:TX:t=P:problem=kreska pseudotaktowa	!	!	!	!LO:TX:t=P:problem=kreska pseudotaktowa	!	!LO:TX:t=P:problem=kreska pseudotaktowa	!
1E	-mi-	2r	.	1G	-mi-	1B	-nus
.	.	1e	Tu	.	.	.	.
!	!	!	!	!	!	!LO:TX:a:t=7.	!
2AA,/	-nus	.	.	2E/	-nus	1r	.
1A	Tu	2e\	so-	1c	tu	.	.
=121	=121	=121	=121	=121	=121	=121	=121
!	!	!LO:TX:t=P:problem=kreska pseudotaktowa	!	!	!	!	!
.	.	1e	-lus	.	.	0r	.
!LO:TX:t=P:problem=kreska pseudotaktowa	!	!	!	!	!	!	!
2A\	ſo-	.	.	2c\	ſo-	.	.
2A\	-lus	2r	.	2c\	-lus	.	.
2G\	al-	1e	Tu	2B\	al-	.	.
=122	=122	=122	=122	=122	=122	=122	=122
1A	-tiſ-	.	.	2c\	-tiſ-	0r	.
*	*	*	*	*custos:B	*	*	*
!	!	!LO:TX:t=P:problem=kreska pseudotaktowa	!	!	!	!	!
!	!	!	!	!LO:LB:g=original	!	!	!
.	.	2e\	ſo-	2A/	-si-	.	.
*custos:E	*	*	*	*	*	*	*
1G	-si-	2e\	-lus	0B	-mus	.	.
.	.	2d\	al-	.	.	.	.
!LO:LB:g=original	!	!	!	!	!	!	!
=123	=123	=123	=123	=123	=123	=123	=123
2E,\	-mus	1e	-tiſ-	.	.	0r	.
!LO:TX:t=P:problem=kreska pseudotaktowa	!	!	!	!	!	!	!
2E\	Je-	.	.	.	.	.	.
2F\	-ſu	1d	-si-	2.A/	.	.	.
2D/	chri-	.	.	.	.	.	.
.	.	.	.	4A/	.	.	.
=124	=124	=124	=124	=124	=124	=124	=124
!	!	!LO:TX:t=P:problem=kreska pseudotaktowa	!	!	!	!	!
1E	-ſte	1B	-mus	2A/	.	1.e	Tu
.	.	.	.	2G/	.	.	.
!LO:TX:t=P:problem=kreska pseudotaktowa	!	!	!	!	!	!	!
1AA	.	2r	.	1A	.	.	.
*	*	*	*ij	*	*	*	*
.	.	1c	Tu	.	.	2e\	ſo-
=125	=125	=125	=125	=125	=125	=125	=125
1r	.	.	.	1G	.	2e\	-lus
*	*	*custos:G	*	*	*	*	*
!	!	!LO:TX:t=P:problem=kreska pseudotaktowa	!	!	!	!	!
.	.	2B\	ſo-	.	.	2d\	al-
!	!	!	!	!LO:TX:t=P:problem=kreska pseudotaktowa	!	!	!
!	!	!LO:LB:g=original	!	!	!	!	!
1C	Je-	2G/	-lus	1E	.	1e	-tiſ-
.	.	2c\	al-	.	.	.	.
=126	=126	=126	=126	=126	=126	=126	=126
1D	-ſu	2B\	-tiſ-	1r	.	1d	-si-
!	!	!LO:TX:t=P:problem=kreska pseudotaktowa	!	!	!	!	!
.	.	2A/	-si-	.	.	.	.
*lig	*	*	*	*	*	*	*
*	*	*	*	*	*	*custos:d	*
!LO:N:vis=0	!	!	!	!	!	!	!
1E	CHri-	2G/	-mus	2r	.	1B	-mus
*	*	*	*Xij	*	*	*	*
.	.	1B	Je-	2G/	Je-	.	.
!	!	!	!	!	!	!LO:LB:g=original	!
=127	=127	=127	=127	=127	=127	=127	=127
!LO:TX:t=P:problem=kreska pseudotaktowa	!	!	!	!	!	!	!
!LO:N:vis=0	!	!	!	!	!	!	!
1F	.	.	.	1A	-ſu	1d	Je-
.	.	1A	-su	.	.	.	.
*Xlig	*	*	*	*	*	*	*
1E,	-ſte	.	.	1B	Chr(is-	0.e	-ſu
.	.	2G/	CHrÿ-	.	.	.	.
=128	=128	=128	=128	=128	=128	=128	=128
*	*ij	*	*	*	*	*	*
0AA	CHri-	0c	.	00.A;	-t)e	.	.
=129	=129	=129	=129	=129	=129	=129	=129
0D	.	0d	-ste	.	.	0f	CHri-
=130	=130	=130	=130	=130	=130	=130	=130
!	!	!LO:TX:a:t=P:problem=# above	!	!	!	!	!
0AA;	-ſte	0c#X	.	.	.	0e	-ste
*	*Xij	*	*	*	*	*	*
=131||	=131||	=131||	=131||	=131||	=131||	=131||	=131||
*M2/1	*	*M2/1	*	*M2/1	*	*M2/1	*
*met(c|)	*	*met(c|)	*	*met(c|)	*	*met(c|)	*
0r	.	0r	.	1A	Cum	1r	.
.	.	.	.	2G/	San-	1e	Cum
.	.	.	.	2A/	-cto	.	.
=132	=132	=132	=132	=132	=132	=132	=132
!LO:TX:t=P:problem=kreska pseudotaktowa	!	!LO:TX:t=P:problem=kreska pseudotaktowa	!	!	!	!	!
1r	.	0r	.	2F/	Spi-	2d\	.
.	.	.	.	2G/	-ri-	2e\	San-
2r	.	.	.	1A	-tu	2c\	-cto
!LO:TX:t=P:problem=kreska pseudotaktowa	!	!	!	!	!	!	!
2D/	Cum	.	.	.	.	2d\	.
=133	=133	=133	=133	=133	=133	=133	=133
2C/	ſan-	1A	Cum	2r	.	2e\	Spi-
!	!	!	!	!LO:TX:t=P:problem=brak znaku powtórzenia tekstu	!	!	!
*	*	*	*	*	*ij	*	*
2D/	-cto	.	.	2F/	Cum	1f	-ri-
2BB/	ſpi-	2G/	san-	2D/	San-	.	.
!LO:TX:t=P:problem=kreska pseudotaktowa	!	!	!	!	!	!	!
2C/	-ri-	2A/	.	2E/	-cto	1e	-tu
=134	=134	=134	=134	=134	=134	=134	=134
2D/	-tu	2F/	-cto	2F/	Spi-	.	.
4C/	.	2G/	Spi-	4E/	-ri-	1d	.
4BB/	.	.	.	4D/	.	.	.
1AA	.	1A	-ri-	1E	-tu	.	.
*	*	*	*	*	*Xij	*	*
!	!	!	!	!	!	!LO:TX:t=P:problem=kreska pseudotaktowa	!
.	.	.	.	.	.	2c\	.
=135	=135	=135	=135	=135	=135	=135	=135
*custos:AA	*	*	*	*	*	*	*
!LO:TX:t=P:problem=kreska pseudotaktowa	!	!	!	!	!	!	!
!	!	!LO:TX:t=P:problem=kreska pseudotaktowa	!	!	!	!	!
1D	.	0A	-tu	2D/	.	2.d\	.
.	.	.	.	2D/	in	.	.
.	.	.	.	.	.	4c\	.
!LO:LB:g=original	!	!	!	!	!	!	!
2r	.	.	.	2F/	glo-	2A/	.
!LO:TX:t=P:problem=kreska pseudotaktowa	!	!	!	!	!	!	!
2AA/	in	.	.	2E/	-ri-	2c\	.
=136	=136	=136	=136	=136	=136	=136	=136
2D/	glo-	1r	.	2F/	-a	1B	.
2E\	-ri-	.	.	2G/	de-	.	.
2F\	-a	1D	in	1A	-i	0A	.
1D	De-	.	.	.	.	.	.
=137	=137	=137	=137	=137	=137	=137	=137
!	!	!	!	!	!	!LO:TX:t=P:problem=kreska pseudotaktowa	!
.	.	2F/	glo-	1r	.	.	.
!LO:TX:t=P:problem=kreska pseudotaktowa	!	!	!	!	!	!	!
2C/	-i	2E/	-ri-	.	.	.	.
!	!	!	!	!LO:TX:t=P:problem=kreska pseudotaktowa	!	!	!
2D/	Pa-	2F/	-a	2r	.	2r	.
2BB/	.	2G/	De-	2d\	in	2D/	in
=138	=138	=138	=138	=138	=138	=138	=138
!	!	!LO:TX:t=P:problem=kreska pseudotaktowa	!	!	!	!	!
1AA	.	1A	-i	2d\	glo-	2F/	glo-
.	.	.	.	2c\	-ri-	2E/	-ri-
!LO:TX:t=P:problem=kreska pseudotaktowa	!	!	!	!	!	!	!
1D	-tris	2r	.	2d\	-a	2.F/	-a
.	.	2D/	in	2B\	.	.	.
.	.	.	.	.	.	4G/	.
=139	=139	=139	=139	=139	=139	=139	=139
!	!	!	!	!	!	!LO:TX:t=P:problem=kreska pseudotaktowa	!
2r	.	2F/	glo-	2A/	pat-	1A	.
2AA/	in	2E/	-ri-	2c\	-ris	.	.
2D/	glo-	2F/	-a	1B	.	1r	.
!LO:TX:t=P:problem=kreska pseudotaktowa	!	!LO:TX:t=P:problem=kreska pseudotaktowa	!	!	!	!	!
2E\	-ri-	2G/	De-	.	.	.	.
=140	=140	=140	=140	=140	=140	=140	=140
!	!	!	!	!LO:TX:t=P:problem=kreska pseudotaktowa	!	!	!
2F\	-a	2A/	-i	0A	.	2r	.
*	*	*	*	*	*	*	*ij
1D	De-	2.F/	Pa-	.	.	2A/	in
.	.	.	.	.	.	2d\	glo-
*	*	*custos:A	*	*	*	*	*
.	.	4E/	.	.	.	.	.
*	*	*	*	*	*	*custos:f	*
!	!	!	!	!	!	!LO:TX:t=P:problem=kreska pseudotaktowa	!
!	!	!LO:LB:g=original	!	!	!	!	!
2C/	-i	1A	.	.	.	2e\	-ri-
!	!	!	!	!	!	!LO:LB:g=original	!
=141	=141	=141	=141	=141	=141	=141	=141
2D/	Pat-	.	.	2r	.	2f\	-a
*	*	*	*	*	*	*	*Xij
2BB/	.	2G/	-tris	2D/	de-	1d	.
!LO:TX:t=P:problem=kreska pseudotaktowa	!	!LO:TX:t=P:problem=kreska pseudotaktowa	!	!	!	!	!
1AA	-ris	1A	.	2F/	-i	.	.
!	!	!	!	!	!	!LO:TX:t=P:problem=kreska pseudotaktowa	!
.	.	.	.	2E/	pat-	2c\	.
=142	=142	=142	=142	=142	=142	=142	=142
2r	.	2r	.	2.F/	-ris	2d\	.
1D	De-	2D/	De-	.	.	2B\	.
.	.	.	.	4G/	.	.	.
.	.	2F/	-i	2.A/	.	2A/	.
2C/	-i	2E/	Pat-	.	.	1e	A-
.	.	.	.	4G/	.	.	.
=143	=143	=143	=143	=143	=143	=143	=143
2D/	P(at)-	2F/	-ris	2F/	a-	.	.
!	!	!LO:TX:t=P:problem=kreska pseudotaktowa	!	!	!	!	!
2BB/	-ris	2G/	.	4E/	.	1d	.
.	.	.	.	4D/	.	.	.
*custos:BB	*	*	*	*custos:D	*	*	*
!LO:TX:t=P:problem=kreska pseudotaktowa	!	!	!	!	!	!	!
1AA	A-	1A	A-	1E	.	.	.
!	!	!	!	!	!	!LO:TX:a:t=P:problem=# above	!
.	.	.	.	.	.	2c#X\	.
!LO:LB:g=original	!	!	!	!	!	!	!
!	!	!	!	!LO:LB:g=original	!	!	!
=144	=144	=144	=144	=144	=144	=144	=144
*lig	*	*lig	*	*lig	*	*	*
!LO:N:vis=0	!	!LO:N:vis=0	!	!	!	!	!
!	!	!	!	!LO:N:vis=0	!	!	!
1BB	.	1F	-men	1D	men	00d	-men
!LO:N:vis=0	!	!LO:N:vis=0.	!LO:N:vis=0	!	!	!	!
!	!	!	!	!LO:N:vis=0	!	!	!
1GG	.	1.B	.	1G	.	.	.
*Xlig	*	*Xlig	*	*	*	*	*
=145	=145	=145	=145	=145	=145	=145	=145
0D	-men.	.	.	0F#X	.	.	.
.	.	4A/	.	.	.	.	.
.	.	4G/	.	.	.	.	.
!	!	!LO:N:vis=0	!	!	!	!	!
.	.	1A	.	.	.	.	.
*	*	*	*	*Xlig	*	*	*
==	==	==	==	==	==	==	==
*-	*-	*-	*-	*-	*-	*-	*-
!!!system-decoration: [(s1,s2,s3,s4)]
!!!AIN: 1 alto 1 bass 1 soprn 1 tenor
!!!ENC: Filip Voros
!!!END: 2022-01-17
!!!ENC: Jan Barakat
!!!END: 2022-01-23
